X: 92
T:Paddy Fahy's Reel [D2DE FEFG]
M:C|
L:1/8
C:Paddy Fahy
R:Reel
K:DDor
D2DE FEFG|ABcA d^cde|f2df edcA|dcAG FDCE|!
~D3E FEFG|ABcA d2de|fedf edcA|1dcAG FDDC:|2dcAG FDD2|!
|:Ad~d2 fded|c2Gc EcGc|Ad~d2 fded|cBcd edcA|!
a2^ga ABcA|dcAG FDCE|~D3E FEFG|Addc d3z:|]!
